app/assets/images/source-aide-web_doc.svg

<svg width="111" height="150" viewBox="0 0 111 150" fill="none" xmlns="http://www.w3.org/2000/svg">
<mask id="mask0" mask-type="alpha" maskUnits="userSpaceOnUse" x="0" y="0" width="111" height="150">
<rect width="111" height="150" rx="8" fill="#C4C4C4"/>
</mask>
<g mask="url(#mask0)">
<path d="M-1.16028 98.8555C-1.16028 98.8555 20.9445 91.1738 56.0049 91.1738C91.0654 91.1738 113.002 81.8477 113.002 81.8477V154.037H-1.16028V98.8555Z" fill="#666666"/>
<path fill-rule="evenodd" clip-rule="evenodd" d="M-1.19543 82.4652C-1.18035 82.4227 1.91521 73.752 21.1697 73.9469C31.0199 74.0466 40.3822 70.7722 50.3989 67.2689C60.0101 63.9075 70.2239 60.3353 82.0493 59.331C106.199 57.28 113.01 62.9469 113.01 62.9469V54.1133L113.01 54.1133L113.01 139.445C113.01 139.445 109.946 130.72 90.6445 130.915C80.7942 131.015 71.432 127.736 61.4153 124.229C51.804 120.863 41.5903 117.286 29.7649 116.28C5.61523 114.226 -1.19543 103.306 -1.19543 103.306L-1.19543 82.4652Z" fill="#FB926B"/>
<path d="M113.001 12.4426H96.0258L-1.16073 8.47461V95.9961C-1.16073 95.9961 1.90145 88.6499 21.196 88.8146C40.4906 88.9793 57.9123 80.4453 82.0528 78.7162C106.193 76.9872 113.001 65.5692 113.001 65.5692L113.001 12.4426Z" fill="#9ADBD0"/>
<path d="M113.001 -4.62207H96.0258H-1.16073V45.2077C-1.16073 45.2077 1.90144 36.5323 21.196 36.7267C40.4906 36.9212 57.9123 24.2172 82.0528 22.1752C106.193 20.1333 113.001 25.7752 113.001 25.7752L113.001 -4.62207Z" fill="#C1C1FB"/>
<line x1="56" y1="56" x2="84" y2="56" stroke="#FBF9FA" stroke-width="2" stroke-linecap="round"/>
<line x1="11" y1="13" x2="20" y2="13" stroke="#FBF9FA" stroke-width="2" stroke-linecap="round"/>
<line x1="11" y1="17" x2="20" y2="17" stroke="#FBF9FA" stroke-width="2" stroke-linecap="round"/>
<line x1="11" y1="21" x2="20" y2="21" stroke="#FBF9FA" stroke-width="2" stroke-linecap="round"/>
<line x1="56" y1="68" x2="84" y2="68" stroke="#FBF9FA" stroke-width="2" stroke-linecap="round"/>
<line x1="22" y1="80" x2="84" y2="80" stroke="#FBF9FA" stroke-width="2" stroke-linecap="round"/>
<line x1="22" y1="92" x2="84" y2="92" stroke="#FBF9FA" stroke-width="2" stroke-linecap="round"/>
<line x1="22" y1="104" x2="65" y2="104" stroke="#FBF9FA" stroke-width="2" stroke-linecap="round"/>
<rect x="20" y="42" width="30" height="27" rx="2" fill="white"/>
<path d="M21.326 129.115C21.502 129.115 21.6486 129.181 21.766 129.313C21.8906 129.438 21.953 129.599 21.953 129.797C21.953 129.863 21.9383 129.947 21.909 130.05L20.226 134.582C20.182 134.714 20.1013 134.82 19.984 134.901C19.874 134.974 19.753 135.011 19.621 135.011L19.533 135C19.2836 134.985 19.0966 134.846 18.972 134.582L18.037 131.876L17.146 134.582C17.0213 134.846 16.8343 134.985 16.585 135L16.497 135.011C16.365 135.011 16.2403 134.974 16.123 134.901C16.013 134.82 15.936 134.714 15.892 134.582L14.209 130.05C14.1796 129.969 14.165 129.885 14.165 129.797C14.165 129.614 14.2236 129.456 14.341 129.324C14.4656 129.185 14.627 129.115 14.825 129.115C14.9716 129.115 15.0963 129.152 15.199 129.225C15.309 129.291 15.386 129.394 15.43 129.533L16.618 132.756L17.487 130.402C17.6043 130.131 17.806 129.995 18.092 129.995C18.246 129.995 18.3633 130.028 18.444 130.094C18.532 130.16 18.6053 130.263 18.664 130.402L19.511 132.701L20.688 129.533C20.732 129.394 20.809 129.291 20.919 129.225C21.029 129.152 21.1646 129.115 21.326 129.115ZM29.7693 129.115C29.9453 129.115 30.092 129.181 30.2093 129.313C30.334 129.438 30.3963 129.599 30.3963 129.797C30.3963 129.863 30.3817 129.947 30.3523 130.05L28.6693 134.582C28.6253 134.714 28.5447 134.82 28.4273 134.901C28.3173 134.974 28.1963 135.011 28.0643 135.011L27.9763 135C27.727 134.985 27.54 134.846 27.4153 134.582L26.4803 131.876L25.5893 134.582C25.4647 134.846 25.2777 134.985 25.0283 135L24.9403 135.011C24.8083 135.011 24.6837 134.974 24.5663 134.901C24.4563 134.82 24.3793 134.714 24.3353 134.582L22.6523 130.05C22.623 129.969 22.6083 129.885 22.6083 129.797C22.6083 129.614 22.667 129.456 22.7843 129.324C22.909 129.185 23.0703 129.115 23.2683 129.115C23.415 129.115 23.5397 129.152 23.6423 129.225C23.7523 129.291 23.8293 129.394 23.8733 129.533L25.0613 132.756L25.9303 130.402C26.0477 130.131 26.2493 129.995 26.5353 129.995C26.6893 129.995 26.8067 130.028 26.8873 130.094C26.9753 130.16 27.0487 130.263 27.1073 130.402L27.9543 132.701L29.1313 129.533C29.1753 129.394 29.2523 129.291 29.3623 129.225C29.4723 129.152 29.608 129.115 29.7693 129.115ZM38.2127 129.115C38.3887 129.115 38.5353 129.181 38.6527 129.313C38.7773 129.438 38.8397 129.599 38.8397 129.797C38.8397 129.863 38.825 129.947 38.7957 130.05L37.1127 134.582C37.0687 134.714 36.988 134.82 36.8707 134.901C36.7607 134.974 36.6397 135.011 36.5077 135.011L36.4197 135C36.1703 134.985 35.9833 134.846 35.8587 134.582L34.9237 131.876L34.0327 134.582C33.908 134.846 33.721 134.985 33.4717 135L33.3837 135.011C33.2517 135.011 33.127 134.974 33.0097 134.901C32.8997 134.82 32.8227 134.714 32.7787 134.582L31.0957 130.05C31.0663 129.969 31.0517 129.885 31.0517 129.797C31.0517 129.614 31.1103 129.456 31.2277 129.324C31.3523 129.185 31.5137 129.115 31.7117 129.115C31.8583 129.115 31.983 129.152 32.0857 129.225C32.1957 129.291 32.2727 129.394 32.3167 129.533L33.5047 132.756L34.3737 130.402C34.491 130.131 34.6927 129.995 34.9787 129.995C35.1327 129.995 35.25 130.028 35.3307 130.094C35.4187 130.16 35.492 130.263 35.5507 130.402L36.3977 132.701L37.5747 129.533C37.6187 129.394 37.6957 129.291 37.8057 129.225C37.9157 129.152 38.0513 129.115 38.2127 129.115Z" fill="#FBF9FA"/>
<rect x="10" y="124" width="32" height="15" rx="4" stroke="#FBF9FA" stroke-width="2"/>
</g>
</svg>

<svg width="111" height="150" fill="none" xmlns="http://www.w3.org/2000/svg">
  <mask id="a" style="mask-type:alpha" maskUnits="userSpaceOnUse" x="0" y="0" width="111" height="150">
    <rect width="111" height="150" rx="8" fill="#C4C4C4"/>
  </mask>
  <g mask="url(#a)">
    <path d="M114.002 28.442H97.026L-.16 24.474V167.78s3.062-7.346 22.357-7.182c19.294.165 36.716-8.369 60.856-10.098 24.141-1.729 30.949-13.147 30.949-13.147V28.443Z" fill="#FB926B"/>
    <path d="m-.713 66.672.554 87.364h114.162v-23.027C114.003 126 109 115.5 95.5 113c-6.883-1.275-31.5-5-39.5-9-21.913-10.957-21.5-25.5-32.5-30.5-14.11-6.414-23.66-6-24.213-6.828Z" fill="#000091"/>
    <path d="M114.002-4.622H-.16v57.83s3.062-8.676 22.357-8.481c19.294.194 36.716-12.51 60.856-14.552 24.141-2.042 30.949 3.6 30.949 3.6V-4.622Z" fill="#ECECFE"/>
    <path stroke="#FBF9FA" stroke-width="2" stroke-linecap="round" d="M56 56h28M11 13h9m-9 4h9m-9 4h9m36 47h28M22 80h62M22 92h62m-62 12h43"/>
    <rect x="20" y="42" width="30" height="27" rx="2" fill="#fff"/>
    <path d="M21.326 129.115c.176 0 .323.066.44.198a.656.656 0 0 1 .187.484c0 .066-.015.15-.044.253l-1.683 4.532a.616.616 0 0 1-.242.319.643.643 0 0 1-.363.11l-.088-.011c-.25-.015-.436-.154-.561-.418l-.935-2.706-.891 2.706c-.125.264-.312.403-.561.418l-.088.011a.697.697 0 0 1-.374-.11.636.636 0 0 1-.231-.319l-1.683-4.532a.734.734 0 0 1-.044-.253.69.69 0 0 1 .176-.473.62.62 0 0 1 .484-.209.63.63 0 0 1 .374.11c.11.066.187.169.231.308l1.188 3.223.869-2.354c.117-.271.319-.407.605-.407.154 0 .271.033.352.099a.728.728 0 0 1 .22.308l.847 2.299 1.177-3.168a.529.529 0 0 1 .231-.308.72.72 0 0 1 .407-.11Zm8.443 0c.176 0 .323.066.44.198a.655.655 0 0 1 .187.484c0 .066-.014.15-.044.253l-1.683 4.532a.615.615 0 0 1-.242.319.643.643 0 0 1-.363.11l-.088-.011c-.249-.015-.436-.154-.56-.418l-.936-2.706-.89 2.706c-.125.264-.312.403-.562.418l-.088.011a.697.697 0 0 1-.374-.11.636.636 0 0 1-.23-.319l-1.684-4.532a.737.737 0 0 1 .132-.726.62.62 0 0 1 .484-.209c.147 0 .272.037.374.11.11.066.187.169.231.308l1.188 3.223.87-2.354c.117-.271.318-.407.604-.407.154 0 .272.033.352.099a.727.727 0 0 1 .22.308l.847 2.299 1.177-3.168a.529.529 0 0 1 .231-.308.72.72 0 0 1 .407-.11Zm8.444 0c.176 0 .322.066.44.198a.656.656 0 0 1 .187.484c0 .066-.015.15-.044.253l-1.683 4.532a.616.616 0 0 1-.242.319.643.643 0 0 1-.363.11L36.42 135c-.25-.015-.437-.154-.561-.418l-.935-2.706-.891 2.706c-.125.264-.312.403-.561.418l-.088.011a.697.697 0 0 1-.374-.11.636.636 0 0 1-.231-.319l-1.683-4.532a.734.734 0 0 1-.044-.253c0-.183.058-.341.176-.473a.62.62 0 0 1 .484-.209.63.63 0 0 1 .374.11c.11.066.187.169.23.308l1.189 3.223.869-2.354c.117-.271.319-.407.605-.407.154 0 .271.033.352.099a.728.728 0 0 1 .22.308l.847 2.299 1.177-3.168a.529.529 0 0 1 .23-.308.72.72 0 0 1 .408-.11Z" fill="#FBF9FA"/>
    <rect x="10" y="124" width="32" height="15" rx="4" stroke="#FBF9FA" stroke-width="2"/>
  </g>
</svg>
